X:047 
T:East Clare Lassies* (reel), The
S:Sean Reid < E. O Loughlin
F:file ID: cre.4/047east_c
B:CRE4.209: gan ainm
Q:180
L:1/8
M:4/4
R:reel
K:Am
d|eAGA eAGA|ecBG A2 Bc|dcBA GABc|dcBA G4|
A3B ABcd|e^fge d2 ed|cA~A2 BAGB|A2A>B A3:|
e|eaab [ac']bag|eaa^f g2 ag|eaag e^fge|dBGB d4|
A2 AG ABcd|e^fge d2 ed|cABc BAGB|A2 AB A3:|

%%%

